X:118
M:6/8
L:1/8
K:G
|:B2B B^c^d|efg "tr"f3|geb gfe|B^c^d e2g|dgd BdB|cAc B2e|(d/c/B)g BcA|(G3 G3):|

